;FLAVOR:Marlin
;TIME:659
;Filament used: 0.246268m
;Layer height: 0.2
;MINX:94
;MINY:94
;MINZ:0.2
;MAXX:126
;MAXY:126
;MAXZ:10
;TARGET_MACHINE.NAME:Creality Ender-3 Pro
;Generated with Cura_SteamEngine 5.9.0
M82 ;absolute extrusion mode
; Ender 3 Custom Start G-code
G92 E0 ; Reset Extruder
G28 ; Home all axes
G1 Z5.0 F3000 ; Move Z Axis up a bit during heating to not damage bed
M104 S175 ; Start heating up the nozzle most of the way
M190 S60 ; Start heating the bed, wait until target temperature reached
M109 S200 ; Finish heating the nozzle
G1 Z2.0 F3000 ; Move Z Axis up little to prevent scratching of Heat Bed
G1 X0.1 Y20 Z0.3 F5000.0 ; Move to start position
G1 X0.1 Y200.0 Z0.3 F1500.0 E15 ; Draw the first line
G1 X0.4 Y200.0 Z0.3 F5000.0 ; Move to side a little
G1 X0.4 Y20 Z0.3 F1500.0 E30 ; Draw the second line
G92 E0 ; Reset Extruder
G1 Z2.0 F3000 ; Move Z Axis up little to prevent scratching of Heat Bed
G1 X5 Y20 Z0.3 F5000.0 ; Move over to prevent blob squish
G92 E0
G92 E0
G1 F1500 E-6.5
;LAYER_COUNT:50
;LAYER:0
M107
G0 F6000 X116.496 Y125.887 Z0.2
;TYPE:SKIRT
G1 F1500 E0
G1 F1200 X115.345 Y125.985 E0.03842
G1 X114.67 Y126 E0.06088
G1 X105.564 Y125.999 E0.36374
G1 X104.831 Y125.988 E0.38813
G1 X103.859 Y125.931 E0.42051
G1 X102.896 Y125.785 E0.45291
G1 X101.95 Y125.556 E0.48528
G1 X101.026 Y125.244 E0.51772
G1 X100.136 Y124.852 E0.55006
G1 X99.313 Y124.401 E0.58128
G1 X98.474 Y123.84 E0.61484
G1 X97.77 Y123.274 E0.64489
G1 X97.017 Y122.549 E0.67965
G1 X96.38 Y121.813 E0.71203
G1 X95.85 Y121.082 E0.74206
G1 X95.314 Y120.185 E0.77682
G1 X94.892 Y119.307 E0.80922
G1 X94.55 Y118.395 E0.84161
G1 X94.29 Y117.457 E0.87399
G1 X94.112 Y116.488 E0.90675
G1 X94.014 Y115.309 E0.9461
G1 X94 Y114.658 E0.96776
G1 X94.001 Y105.525 E1.27153
G1 X94.012 Y104.825 E1.29481
G1 X94.07 Y103.852 E1.32723
G1 X94.216 Y102.889 E1.35963
G1 X94.446 Y101.943 E1.39201
G1 X94.759 Y101.02 E1.42442
G1 X95.151 Y100.13 E1.45677
G1 X95.621 Y99.277 E1.48916
G1 X96.164 Y98.469 E1.52154
G1 X96.731 Y97.765 E1.5516
G1 X97.456 Y97.013 E1.58635
G1 X98.192 Y96.376 E1.61872
G1 X98.924 Y95.846 E1.64878
G1 X99.821 Y95.311 E1.68352
G1 X100.699 Y94.89 E1.7159
G1 X101.612 Y94.548 E1.74833
G1 X102.549 Y94.289 E1.78066
G1 X103.516 Y94.111 E1.81337
G1 X104.655 Y94.015 E1.85139
G1 X105.312 Y94 E1.87324
G1 X114.304 Y94 E2.17232
G1 X115.184 Y94.013 E2.20159
G1 X116.156 Y94.072 E2.23398
G1 X117.119 Y94.218 E2.26637
G1 X118.066 Y94.449 E2.29879
G1 X118.954 Y94.749 E2.32997
G1 X119.846 Y95.139 E2.36235
G1 X120.729 Y95.626 E2.39589
G1 X121.48 Y96.128 E2.42593
G1 X122.295 Y96.786 E2.46077
G1 X122.993 Y97.464 E2.49314
G1 X123.629 Y98.201 E2.52552
G1 X124.199 Y98.991 E2.55792
G1 X124.661 Y99.767 E2.58795
G1 X125.115 Y100.709 E2.62273
G1 X125.444 Y101.587 E2.65392
G1 X125.713 Y102.559 E2.68746
G1 X125.89 Y103.525 E2.72013
G1 X125.985 Y104.655 E2.75784
G1 X126 Y105.33 E2.7803
G1 X125.999 Y114.4 E3.08197
G1 X125.988 Y115.163 E3.10735
G1 X125.931 Y116.136 E3.13977
G1 X125.786 Y117.099 E3.17216
G1 X125.557 Y118.045 E3.20453
G1 X125.246 Y118.969 E3.23696
G1 X124.854 Y119.86 E3.26933
G1 X124.386 Y120.712 E3.30166
G1 X123.864 Y121.493 E3.33291
G1 X123.231 Y122.278 E3.36645
G1 X122.606 Y122.929 E3.39646
G1 X121.817 Y123.617 E3.43128
G1 X121.057 Y124.167 E3.46249
G1 X120.19 Y124.684 E3.49606
G1 X119.312 Y125.106 E3.52846
G1 X118.401 Y125.448 E3.56082
G1 X117.462 Y125.709 E3.59324
G1 X116.496 Y125.887 E3.62591
G0 F6000 X116.462 Y125.488
G1 F1200 X115.311 Y125.586 E3.66433
G1 X114.67 Y125.6 E3.68566
G1 X105.57 Y125.599 E3.98832
G1 X104.854 Y125.589 E4.01214
G1 X103.918 Y125.535 E4.04332
G1 X102.989 Y125.396 E4.07457
G1 X102.077 Y125.177 E4.10576
G1 X101.187 Y124.878 E4.13699
G1 X100.328 Y124.501 E4.16819
G1 X99.505 Y124.05 E4.1994
G1 X98.725 Y123.528 E4.23062
G1 X98.021 Y122.962 E4.26066
G1 X97.319 Y122.287 E4.29305
G1 X96.704 Y121.578 E4.32427
G1 X96.174 Y120.847 E4.3543
G1 X95.674 Y120.011 E4.3867
G1 X95.266 Y119.166 E4.41791
G1 X94.935 Y118.288 E4.44912
G1 X94.683 Y117.384 E4.48033
G1 X94.511 Y116.455 E4.51176
G1 X94.413 Y115.276 E4.55111
G1 X94.4 Y114.658 E4.57167
G1 X94.401 Y105.531 E4.87523
G1 X94.411 Y104.848 E4.89795
G1 X94.466 Y103.911 E4.92917
G1 X94.605 Y102.983 E4.96038
G1 X94.825 Y102.071 E4.99158
G1 X95.125 Y101.181 E5.02282
G1 X95.502 Y100.322 E5.05402
G1 X95.953 Y99.5 E5.08521
G1 X96.476 Y98.72 E5.11644
G1 X97.043 Y98.016 E5.14651
G1 X97.718 Y97.315 E5.17887
G1 X98.427 Y96.7 E5.21009
G1 X99.159 Y96.17 E5.24015
G1 X99.995 Y95.671 E5.27253
G1 X100.84 Y95.264 E5.30372
G1 X101.719 Y94.933 E5.33496
G1 X102.622 Y94.682 E5.36614
G1 X103.55 Y94.51 E5.39753
G1 X104.689 Y94.414 E5.43555
G1 X105.321 Y94.4 E5.45657
G1 X114.298 Y94.4 E5.75515
G1 X115.16 Y94.412 E5.78382
G1 X116.097 Y94.468 E5.81504
G1 X117.025 Y94.607 E5.84625
G1 X117.938 Y94.828 E5.87749
G1 X118.794 Y95.116 E5.90753
G1 X119.686 Y95.506 E5.93991
G1 X120.507 Y95.959 E5.9711
G1 X121.258 Y96.461 E6.00114
G1 X122.017 Y97.073 E6.03357
G1 X122.691 Y97.726 E6.06479
G1 X123.305 Y98.435 E6.09598
G1 X123.855 Y99.196 E6.12721
G1 X124.317 Y99.972 E6.15725
G1 X124.74 Y100.849 E6.18963
G1 X125.069 Y101.727 E6.22082
G1 X125.32 Y102.632 E6.25206
G1 X125.491 Y103.559 E6.28341
G1 X125.586 Y104.689 E6.32112
G1 X125.6 Y105.33 E6.34245
G1 X125.599 Y114.395 E6.64395
G1 X125.589 Y115.14 E6.66873
G1 X125.535 Y116.077 E6.69995
G1 X125.397 Y117.006 E6.73119
G1 X125.178 Y117.918 E6.76238
G1 X124.88 Y118.808 E6.7936
G1 X124.503 Y119.668 E6.82483
G1 X124.053 Y120.49 E6.856
G1 X123.531 Y121.271 E6.88724
G1 X122.942 Y122.001 E6.91844
G1 X122.317 Y122.652 E6.94846
G1 X121.582 Y123.293 E6.98089
G1 X120.822 Y123.843 E7.0121
G1 X120.016 Y124.324 E7.04332
G1 X119.171 Y124.732 E7.07452
G1 X118.293 Y125.063 E7.10573
G1 X117.389 Y125.316 E7.13696
G1 X116.462 Y125.488 E7.16831
G0 F6000 X116.428 Y125.089
G1 F1200 X115.277 Y125.187 E7.20673
G1 X114.67 Y125.2 E7.22693
G1 X105.575 Y125.199 E7.52943
G1 X104.877 Y125.19 E7.55265
G1 X103.976 Y125.139 E7.58266
G1 X103.082 Y125.007 E7.61272
G1 X102.204 Y124.798 E7.64274
G1 X101.347 Y124.511 E7.6728
G1 X100.52 Y124.15 E7.70281
G1 X99.727 Y123.717 E7.73286
G1 X98.976 Y123.216 E7.76289
G1 X98.272 Y122.65 E7.79293
G1 X97.621 Y122.024 E7.82297
G1 X97.028 Y121.343 E7.853
G1 X96.498 Y120.612 E7.88304
G1 X96.034 Y119.837 E7.91308
G1 X95.64 Y119.024 E7.94313
G1 X95.32 Y118.18 E7.97315
G1 X95.076 Y117.31 E8.0032
G1 X94.91 Y116.422 E8.03325
G1 X94.813 Y115.267 E8.0718
G1 X94.8 Y114.658 E8.09206
G1 X94.801 Y105.536 E8.39546
G1 X94.81 Y104.871 E8.41758
G1 X94.862 Y103.969 E8.44763
G1 X94.994 Y103.076 E8.47765
G1 X95.204 Y102.198 E8.50768
G1 X95.491 Y101.341 E8.53774
G1 X95.853 Y100.514 E8.56776
G1 X96.286 Y99.722 E8.59779
G1 X96.788 Y98.971 E8.62783
G1 X97.355 Y98.267 E8.6579
G1 X97.981 Y97.617 E8.68791
G1 X98.662 Y97.024 E8.71794
G1 X99.394 Y96.494 E8.748
G1 X100.169 Y96.031 E8.77803
G1 X100.982 Y95.638 E8.80806
G1 X101.827 Y95.318 E8.83812
G1 X102.696 Y95.075 E8.86813
G1 X103.584 Y94.909 E8.89817
G1 X104.723 Y94.813 E8.93619
G1 X105.33 Y94.8 E8.95639
G1 X114.293 Y94.8 E9.2545
G1 X115.137 Y94.811 E9.28257
G1 X116.039 Y94.864 E9.31262
G1 X116.932 Y94.996 E9.34265
G1 X117.81 Y95.207 E9.37268
G1 X118.666 Y95.495 E9.40272
G1 X119.493 Y95.857 E9.43275
G1 X120.285 Y96.292 E9.4628
G1 X121.036 Y96.794 E9.49284
G1 X121.739 Y97.361 E9.52288
G1 X122.389 Y97.988 E9.55292
G1 X122.981 Y98.67 E9.58296
G1 X123.511 Y99.401 E9.61299
G1 X123.973 Y100.177 E9.64303
G1 X124.366 Y100.99 E9.67306
G1 X124.684 Y101.835 E9.70309
G1 X124.927 Y102.705 E9.73313
G1 X125.092 Y103.593 E9.76317
G1 X125.187 Y104.723 E9.80089
G1 X125.2 Y105.33 E9.82108
G1 X125.199 Y114.39 E10.12242
G1 X125.19 Y115.117 E10.1466
G1 X125.139 Y116.019 E10.17665
G1 X125.008 Y116.913 E10.2067
G1 X124.799 Y117.791 E10.23672
G1 X124.513 Y118.648 E10.26677
G1 X124.152 Y119.476 E10.29681
G1 X123.72 Y120.268 E10.32682
G1 X123.219 Y121.02 E10.35687
G1 X122.653 Y121.724 E10.38692
G1 X122.028 Y122.375 E10.41693
G1 X121.347 Y122.969 E10.44699
G1 X120.616 Y123.5 E10.47704
G1 X119.842 Y123.964 E10.50706
G1 X119.029 Y124.358 E10.5371
G1 X118.185 Y124.678 E10.56713
G1 X117.315 Y124.923 E10.59719
G1 X116.428 Y125.089 E10.6272
G1 F1500 E4.1272
;MESH:dice3d-Body.3mf
G0 F6000 X114.576 Y115.665
G0 X114.411 Y114.349
;TYPE:WALL-INNER
G1 F1500 E10.6272
G1 F956.2 X114.38 Y114.295 E10.6298
G1 X114.318 Y114.295 E10.63239
G1 X114.287 Y114.349 E10.63499
G1 X114.318 Y114.403 E10.63759
G1 X114.38 Y114.403 E10.64018
G1 X114.411 Y114.349 E10.64277
G0 F6000 X114.422 Y113.522
G0 X114.158 Y111.705
G0 X114.357 Y112.281
G1 F987.7 X114.357 Y110.796 E10.70278
G1 X114.157 Y111.178 E10.72021
G1 X113.898 Y111.481 E10.73632
G1 X113.743 Y111.616 E10.74462
G1 X113.993 Y111.813 E10.75749
G1 X114.357 Y112.281 E10.78145
G0 F6000 X114.158 Y111.705
G0 X114.334 Y110.239
G0 X114.158 Y108.437
G0 X114.348 Y109.069
G1 F952.4 X114.348 Y107.438 E10.8498
G1 X114.206 Y107.76 E10.86455
G1 X113.854 Y108.165 E10.88703
G1 X113.714 Y108.278 E10.89457
G1 X113.918 Y108.447 E10.90567
G1 X114.227 Y108.831 E10.92633
G1 X114.348 Y109.069 E10.93752
G0 F6000 X114.158 Y108.437
G0 X114.41 Y106.18
G1 F1045.8 X114.331 Y105.669 E10.95725
G1 F1500 E4.45725
G0 F6000 X113.862 Y105.418
G0 X105.91 Y105.417
G0 X105.637 Y105.59
G1 F1500 E10.95725
G1 F1263.2 X105.566 Y105.549 E10.95984
G1 X105.567 Y105.631 E10.96244
G1 X105.637 Y105.59 E10.965
G0 F6000 X105.457 Y106.358
G0 X105.595 Y108.755
G1 F1237.1 X105.923 Y108.404 E10.9805
G1 X106.098 Y108.269 E10.98763
G1 X105.891 Y108.094 E10.99637
G1 X105.595 Y107.74 E11.01126
G1 X105.595 Y108.755 E11.04401
G0 F6000 X105.496 Y109.268
G0 X105.385 Y109.697
G0 X105.38 Y110.312
G0 X105.588 Y112.109
G1 F1280 X106.053 Y111.611 E11.06525
G1 X105.898 Y111.492 E11.07135
G1 X105.587 Y111.133 E11.08616
G1 X105.588 Y112.109 E11.11659
G0 F6000 X105.496 Y112.604
G0 X105.387 Y113.028
G0 X105.372 Y113.449
G0 X105.439 Y113.753
G0 X105.62 Y114.424
G1 F1355.9 X105.554 Y114.386 E11.11883
G1 X105.554 Y114.462 E11.12107
G1 X105.62 Y114.424 E11.12331
G1 F1500 E4.62331
G0 F6000 X105.902 Y114.582
G0 X108.736 Y114.582
G0 X110 Y114.4
G1 F1500 E11.12331
G1 F1200 X110.666 Y114.4 E11.14546
G1 X110.486 Y114.06 E11.15826
G1 X110.361 Y113.467 E11.17841
G1 X110.374 Y113.027 E11.19305
G1 X110.494 Y112.564 E11.20896
G1 X110.767 Y112.067 E11.22782
G1 X111.155 Y111.652 E11.24672
G1 X110.894 Y111.437 E11.25796
G1 X110.556 Y111.037 E11.27538
G1 X110.299 Y110.337 E11.30018
G1 X110.305 Y109.679 E11.32207
G1 X110.42 Y109.209 E11.33816
G1 X110.696 Y108.718 E11.3569
G1 X110.981 Y108.406 E11.37095
G1 X111.125 Y108.292 E11.37706
G1 X110.913 Y108.131 E11.38592
G1 X110.63 Y107.791 E11.40063
G1 X110.414 Y107.373 E11.41628
G1 X110.378 Y107.252 E11.42048
G1 F1039 X110.226 Y106.863 E11.43652
G1 F860.2 X110.178 Y106.775 E11.44117
G1 F810.8 X110.178 Y106.619 E11.44885
G1 F904 X110.249 Y106.376 E11.46003
G1 F1103.4 X110.292 Y106.298 E11.46325
G1 F1200 X110.381 Y105.934 E11.47571
G1 X110.543 Y105.6 E11.48806
G1 X109.249 Y105.601 E11.5311
G1 X109.437 Y106.159 E11.55068
G1 X109.454 Y106.27 E11.55442
G1 F967.7 X109.589 Y106.639 E11.57062
G1 F810.8 X109.59 Y106.774 E11.57727
G1 F860.2 X109.541 Y106.863 E11.58198
G1 F1039 X109.354 Y107.363 E11.60249
G1 F1200 X109.18 Y107.751 E11.61663
G1 X108.862 Y108.122 E11.63288
G1 X108.615 Y108.321 E11.64343
G1 X108.862 Y108.538 E11.65437
G1 X109.181 Y108.948 E11.67165
G1 X109.372 Y109.506 E11.69126
G1 X109.433 Y110.094 E11.71093
G1 X109.309 Y110.645 E11.72971
G1 X109.115 Y111.078 E11.74549
G1 X108.747 Y111.503 E11.76419
G1 X108.578 Y111.631 E11.77124
G1 X108.805 Y111.812 E11.7809
G1 X109.179 Y112.282 E11.80087
G1 X109.368 Y112.831 E11.82019
G1 X109.435 Y113.398 E11.83918
G1 X109.31 Y113.978 E11.85891
G1 X109.124 Y114.399 E11.87422
G1 X110 Y114.4 E11.90335
G0 F6000 X110 Y114.799
;TYPE:WALL-OUTER
G1 F1200 X111.606 Y114.799 E11.95677
G1 X111.266 Y114.529 E11.97121
G1 X111.038 Y114.25 E11.98319
G1 X110.86 Y113.897 E11.99634
G1 X110.76 Y113.441 E12.01187
G1 X110.778 Y113.061 E12.02452
G1 X110.88 Y112.691 E12.03729
G1 X111.109 Y112.287 E12.05273
G1 X111.417 Y111.958 E12.06772
G1 X111.857 Y111.731 E12.08419
G1 F1227.6 X112.219 Y111.647 E12.09627
G1 X111.783 Y111.55 E12.11079
G1 F1200 X111.527 Y111.428 E12.12023
G1 X111.199 Y111.178 E12.13394
G1 X110.899 Y110.815 E12.14961
G1 X110.7 Y110.267 E12.169
G1 X110.709 Y109.708 E12.18759
G1 X110.808 Y109.335 E12.20043
G1 X111.011 Y108.966 E12.21444
G1 X111.265 Y108.687 E12.22698
G1 X111.527 Y108.498 E12.23773
G1 X111.835 Y108.354 E12.24904
G1 F1233.9 X112.178 Y108.299 E12.26027
G1 X111.732 Y108.185 E12.27516
G1 F1200 X111.474 Y108.056 E12.28476
G1 X111.174 Y107.821 E12.29743
G1 X110.959 Y107.563 E12.3086
G1 X110.783 Y107.218 E12.32148
G1 X110.672 Y106.733 E12.33803
G1 X110.686 Y106.366 E12.35025
G1 X110.769 Y106.031 E12.36173
G1 X111.016 Y105.58 E12.37883
G1 X111.3 Y105.272 E12.39276
G1 X111.415 Y105.2 E12.39728
G1 X108.304 Y105.201 E12.50075
G1 X108.612 Y105.45 E12.51392
G1 X108.894 Y105.8 E12.52887
G1 X109.042 Y106.23 E12.544
G1 X109.096 Y106.73 E12.56072
G1 X108.988 Y107.201 E12.5768
G1 X108.845 Y107.522 E12.58848
G1 X108.56 Y107.86 E12.60319
G1 X108.216 Y108.115 E12.61743
G1 F1218.3 X107.821 Y108.279 E12.63144
G1 F1280 X107.547 Y108.296 E12.64
G1 F1259.8 X107.922 Y108.373 E12.65213
G1 F1200 X108.254 Y108.543 E12.66454
G1 X108.546 Y108.784 E12.67713
G1 X108.824 Y109.141 E12.69218
G1 X108.97 Y109.567 E12.70716
G1 X109.029 Y110.05 E12.72334
G1 X108.919 Y110.538 E12.73998
G1 X108.77 Y110.872 E12.75214
G1 X108.473 Y111.211 E12.76713
G1 X108.136 Y111.452 E12.78091
G1 X107.832 Y111.584 E12.79194
G1 F1269.8 X107.438 Y111.635 E12.80442
G1 F1304.3 X107.644 Y111.643 E12.81073
G1 F1230.8 X107.963 Y111.728 E12.82144
G1 F1200 X108.223 Y111.863 E12.83118
G1 X108.546 Y112.12 E12.84491
G1 X108.824 Y112.477 E12.85996
G1 X108.979 Y112.944 E12.87632
G1 X109.028 Y113.382 E12.89098
G1 X108.932 Y113.836 E12.90642
G1 X108.771 Y114.205 E12.91981
G1 X108.454 Y114.562 E12.93569
G1 X108.129 Y114.799 E12.94907
G1 X110 Y114.799 E13.0113
G1 F1500 E6.5113
G0 F6000 X110.39 Y114.262
G0 X111.025 Y114.582
G0 X111.884 Y113.921
G0 X113.028 Y113.927
G0 X113.287 Y114.8
G1 F1500 E13.0113
G1 F1200 X114.8 Y114.8 E13.06162
G1 X114.8 Y113.936 E13.09035
G1 F1043.5 X114.741 Y113.489 E13.1076
G1 F905.7 X114.729 Y112.925 E13.13246
G1 F1019.1 X114.8 Y112.389 E13.15364
G1 F1200 X114.8 Y110.595 E13.21331
G1 F1006.3 X114.723 Y110.143 E13.23149
G1 F849.6 X114.712 Y109.566 E13.2586
G1 F875.9 X114.74 Y109.44 E13.26448
G1 F1043.5 X114.8 Y109.022 E13.28064
G1 F1200 X114.8 Y107.235 E13.34007
G1 F993.8 X114.717 Y106.789 E13.35829
G1 F848.1 X114.717 Y106.579 E13.36818
G1 F991.7 X114.8 Y106.18 E13.38458
G1 F1200 X114.8 Y105.2 E13.41717
G1 X113.316 Y105.2 E13.46653
G1 X113.593 Y105.43 E13.47851
G1 X113.875 Y105.782 E13.49351
G1 F991.7 X114.152 Y106.608 E13.52857
G1 F848.1 X114.155 Y106.741 E13.53483
G1 F916 X113.82 Y107.516 E13.57162
G1 F1086 X113.507 Y107.87 E13.58898
G1 F1200 X113.184 Y108.1 E13.60217
G1 F1212.1 X112.801 Y108.259 E13.61583
G1 F1224.5 X112.604 Y108.278 E13.62228
G1 F1212.1 X112.989 Y108.372 E13.63533
G1 F1200 X113.327 Y108.544 E13.64794
G1 X113.598 Y108.766 E13.65959
G1 X113.873 Y109.111 E13.67427
G1 F1043.5 X114.098 Y109.547 E13.69303
G1 F875.9 X114.138 Y109.599 E13.69602
G1 F849.6 X114.173 Y110.096 E13.71943
G1 F1006.3 X113.84 Y110.867 E13.75274
G1 F1200 X113.525 Y111.227 E13.76865
G1 X113.205 Y111.452 E13.78166
G1 X112.905 Y111.583 E13.79255
G1 F1246.8 X112.507 Y111.642 E13.80543
G1 F1263.2 X112.785 Y111.657 E13.81422
G1 F1215.2 X113.103 Y111.748 E13.82509
G1 F1200 X113.392 Y111.902 E13.83598
G1 X113.661 Y112.114 E13.84737
G1 X113.942 Y112.469 E13.86243
G1 F1019.1 X114.189 Y112.956 E13.88382
G1 F905.7 X114.225 Y113.445 E13.90542
G1 F1043.5 X114.059 Y113.894 E13.92373
G1 F1200 X113.91 Y114.226 E13.93584
G1 X113.594 Y114.582 E13.95167
G1 X113.287 Y114.8 E13.96419
G1 F1500 E7.46419
G0 F6000 X113.966 Y114.549
G0 X114.227 Y114.13
G0 X114.403 Y113.429
G0 X112.507 Y111.642
G1 F1500 E13.96419
G1 F1307.9 X112.29 Y111.631 E13.97082
G1 F1500 E7.47082
G0 F6000 X111.428 Y111.664
G0 X111.041 Y111.374
G0 X110.692 Y110.961
