;FLAVOR:Marlin
;TIME:23869
;Filament used: 20.0032m
;Layer height: 0.2
;MINX:49.134
;MINY:16.133
;MINZ:0.2
;MAXX:170.867
;MAXY:203.867
;MAXZ:10
;TARGET_MACHINE.NAME:Creality Ender-3 Pro
;Generated with Cura_SteamEngine 5.9.0
M82 ;absolute extrusion mode
; Ender 3 Custom Start G-code
G92 E0 ; Reset Extruder
G28 ; Home all axes
G1 Z5.0 F3000 ; Move Z Axis up a bit during heating to not damage bed
M104 S175 ; Start heating up the nozzle most of the way
M190 S60 ; Start heating the bed, wait until target temperature reached
M109 S200 ; Finish heating the nozzle
G1 Z2.0 F3000 ; Move Z Axis up little to prevent scratching of Heat Bed
G1 X0.1 Y20 Z0.3 F5000.0 ; Move to start position
G1 X0.1 Y200.0 Z0.3 F1500.0 E15 ; Draw the first line
G1 X0.4 Y200.0 Z0.3 F5000.0 ; Move to side a little
G1 X0.4 Y20 Z0.3 F1500.0 E30 ; Draw the second line
G92 E0 ; Reset Extruder
G1 Z2.0 F3000 ; Move Z Axis up little to prevent scratching of Heat Bed
G1 X5 Y20 Z0.3 F5000.0 ; Move over to prevent blob squish
G92 E0
G92 E0
G1 F1500 E-6.5
;LAYER_COUNT:50
;LAYER:0
M107
G0 F6000 X60.463 Y16.134 Z0.2
;TYPE:SKIRT
G1 F1500 E0
G1 F1200 X159.171 Y16.133 E3.28304
G1 X160.051 Y16.146 E3.31231
G1 X161.023 Y16.205 E3.3447
G1 X161.986 Y16.351 E3.3771
G1 X162.933 Y16.582 E3.40952
G1 X163.821 Y16.882 E3.44069
G1 X164.713 Y17.272 E3.47307
G1 X165.596 Y17.759 E3.50661
G1 X166.347 Y18.261 E3.53666
G1 X167.162 Y18.919 E3.5715
G1 X167.86 Y19.597 E3.60386
G1 X168.496 Y20.334 E3.63624
G1 X169.066 Y21.124 E3.66864
G1 X169.528 Y21.9 E3.69868
G1 X169.982 Y22.842 E3.73346
G1 X170.311 Y23.72 E3.76464
G1 X170.58 Y24.692 E3.79819
G1 X170.757 Y25.658 E3.83085
G1 X170.852 Y26.787 E3.86853
G1 X170.867 Y27.462 E3.89099
G1 X170.866 Y192.265 E9.37236
G1 X170.855 Y193.028 E9.39774
G1 X170.798 Y194.001 E9.43016
G1 X170.653 Y194.964 E9.46255
G1 X170.424 Y195.91 E9.49492
G1 X170.113 Y196.834 E9.52735
G1 X169.721 Y197.725 E9.55972
G1 X169.253 Y198.577 E9.59206
G1 X168.731 Y199.358 E9.6233
G1 X168.098 Y200.143 E9.65684
G1 X167.473 Y200.794 E9.68686
G1 X166.684 Y201.482 E9.72167
G1 X165.924 Y202.032 E9.75288
G1 X165.057 Y202.549 E9.78645
G1 X164.179 Y202.971 E9.81885
G1 X163.268 Y203.313 E9.85122
G1 X162.329 Y203.574 E9.88363
G1 X161.363 Y203.752 E9.9163
G1 X160.228 Y203.85 E9.95419
G1 X159.558 Y203.864 E9.97648
G1 X60.832 Y203.867 E13.26012
G1 X59.952 Y203.854 E13.28939
G1 X58.98 Y203.795 E13.32178
G1 X58.017 Y203.649 E13.35418
G1 X57.07 Y203.418 E13.3866
G1 X56.182 Y203.118 E13.41777
G1 X55.29 Y202.728 E13.45015
G1 X54.407 Y202.241 E13.48369
G1 X53.656 Y201.739 E13.51374
G1 X52.841 Y201.081 E13.54858
G1 X52.143 Y200.403 E13.58094
G1 X51.507 Y199.666 E13.61332
G1 X50.937 Y198.876 E13.64572
G1 X50.475 Y198.1 E13.67576
G1 X50.021 Y197.158 E13.71054
G1 X49.692 Y196.28 E13.74172
G1 X49.423 Y195.308 E13.77527
G1 X49.246 Y194.342 E13.80793
G1 X49.151 Y193.217 E13.84548
G1 X49.136 Y192.543 E13.8679
G1 X49.134 Y27.811 E19.34691
G1 X49.146 Y26.962 E19.37515
G1 X49.204 Y25.989 E19.40757
G1 X49.349 Y25.026 E19.43996
G1 X49.579 Y24.079 E19.47238
G1 X49.891 Y23.157 E19.50475
G1 X50.284 Y22.266 E19.53714
G1 X50.754 Y21.413 E19.56953
G1 X51.297 Y20.605 E19.60191
G1 X51.863 Y19.901 E19.63196
G1 X52.588 Y19.149 E19.6667
G1 X53.324 Y18.512 E19.69907
G1 X54.055 Y17.981 E19.72912
G1 X54.952 Y17.446 E19.76386
G1 X55.83 Y17.025 E19.79625
G1 X56.743 Y16.683 E19.82868
G1 X57.681 Y16.423 E19.86105
G1 X58.647 Y16.245 E19.89372
G1 X59.788 Y16.149 E19.9318
G1 X60.463 Y16.134 E19.95426
G0 F6000 X60.463 Y16.534
G1 F1200 X159.165 Y16.533 E23.2371
G1 X160.027 Y16.545 E23.26577
G1 X160.964 Y16.601 E23.29699
G1 X161.892 Y16.74 E23.3282
G1 X162.805 Y16.961 E23.35945
G1 X163.661 Y17.249 E23.38949
G1 X164.553 Y17.639 E23.42187
G1 X165.374 Y18.092 E23.45305
G1 X166.125 Y18.594 E23.4831
G1 X166.884 Y19.206 E23.51553
G1 X167.558 Y19.859 E23.54674
G1 X168.172 Y20.568 E23.57794
G1 X168.722 Y21.329 E23.60917
G1 X169.184 Y22.105 E23.6392
G1 X169.607 Y22.982 E23.67159
G1 X169.936 Y23.86 E23.70277
G1 X170.187 Y24.765 E23.73401
G1 X170.358 Y25.692 E23.76536
G1 X170.453 Y26.821 E23.80305
G1 X170.467 Y27.462 E23.82437
G1 X170.466 Y192.26 E29.30557
G1 X170.456 Y193.005 E29.33036
G1 X170.402 Y193.942 E29.36157
G1 X170.264 Y194.871 E29.39281
G1 X170.045 Y195.783 E29.424
G1 X169.747 Y196.673 E29.45522
G1 X169.37 Y197.533 E29.48645
G1 X168.92 Y198.355 E29.51762
G1 X168.398 Y199.136 E29.54887
G1 X167.809 Y199.866 E29.58006
G1 X167.184 Y200.517 E29.61008
G1 X166.449 Y201.158 E29.64252
G1 X165.689 Y201.708 E29.67372
G1 X164.883 Y202.189 E29.70494
G1 X164.038 Y202.597 E29.73615
G1 X163.16 Y202.928 E29.76735
G1 X162.256 Y203.181 E29.79858
G1 X161.329 Y203.353 E29.82994
G1 X160.194 Y203.451 E29.86783
G1 X159.558 Y203.464 E29.88898
G1 X60.838 Y203.467 E33.17242
G1 X59.976 Y203.455 E33.2011
G1 X59.039 Y203.399 E33.23232
G1 X58.111 Y203.26 E33.26353
G1 X57.198 Y203.039 E33.29477
G1 X56.342 Y202.751 E33.32481
G1 X55.45 Y202.361 E33.35719
G1 X54.629 Y201.908 E33.38838
G1 X53.878 Y201.406 E33.41842
G1 X53.119 Y200.794 E33.45085
G1 X52.445 Y200.141 E33.48206
G1 X51.831 Y199.432 E33.51326
G1 X51.281 Y198.671 E33.54449
G1 X50.819 Y197.895 E33.57453
G1 X50.396 Y197.018 E33.60691
G1 X50.067 Y196.14 E33.6381
G1 X49.816 Y195.235 E33.66933
G1 X49.645 Y194.308 E33.70069
G1 X49.55 Y193.183 E33.73824
G1 X49.536 Y192.543 E33.75953
G1 X49.534 Y27.816 E39.23837
G1 X49.545 Y26.985 E39.26601
G1 X49.6 Y26.048 E39.29723
G1 X49.738 Y25.12 E39.32843
G1 X49.958 Y24.207 E39.35967
G1 X50.257 Y23.318 E39.39087
G1 X50.635 Y22.458 E39.42211
G1 X51.086 Y21.636 E39.4533
G1 X51.609 Y20.856 E39.48453
G1 X52.175 Y20.152 E39.51457
G1 X52.85 Y19.451 E39.54694
G1 X53.559 Y18.836 E39.57816
G1 X54.29 Y18.305 E39.60821
G1 X55.126 Y17.806 E39.64059
G1 X55.971 Y17.399 E39.67179
G1 X56.85 Y17.068 E39.70303
G1 X57.754 Y16.816 E39.73424
G1 X58.681 Y16.644 E39.7656
G1 X59.822 Y16.548 E39.80368
G1 X60.463 Y16.534 E39.82501
G0 F6000 X60.463 Y16.934
G1 F1200 X159.16 Y16.933 E43.10768
G1 X160.004 Y16.944 E43.13576
G1 X160.906 Y16.997 E43.16581
G1 X161.799 Y17.129 E43.19583
G1 X162.677 Y17.34 E43.22587
G1 X163.533 Y17.628 E43.25591
G1 X164.36 Y17.99 E43.28593
G1 X165.152 Y18.425 E43.31599
G1 X165.903 Y18.927 E43.34603
G1 X166.606 Y19.494 E43.37607
G1 X167.256 Y20.121 E43.40611
G1 X167.848 Y20.803 E43.43614
G1 X168.378 Y21.534 E43.46618
G1 X168.84 Y22.31 E43.49621
G1 X169.233 Y23.123 E43.52625
G1 X169.551 Y23.968 E43.55628
G1 X169.794 Y24.838 E43.58632
G1 X169.959 Y25.726 E43.61636
G1 X170.054 Y26.855 E43.65404
G1 X170.067 Y27.462 E43.67424
G1 X170.066 Y192.255 E49.15528
G1 X170.057 Y192.982 E49.17946
G1 X170.006 Y193.884 E49.20951
G1 X169.875 Y194.778 E49.23956
G1 X169.666 Y195.656 E49.26958
G1 X169.38 Y196.513 E49.29963
G1 X169.019 Y197.341 E49.32967
G1 X168.587 Y198.133 E49.35967
G1 X168.086 Y198.885 E49.38973
G1 X167.52 Y199.589 E49.41977
G1 X166.895 Y200.24 E49.44979
G1 X166.214 Y200.834 E49.47984
G1 X165.483 Y201.365 E49.5099
G1 X164.709 Y201.829 E49.53991
G1 X163.896 Y202.223 E49.56996
G1 X163.052 Y202.543 E49.59998
G1 X162.182 Y202.788 E49.63004
G1 X161.295 Y202.954 E49.66006
G1 X160.16 Y203.052 E49.69795
G1 X159.554 Y203.065 E49.71811
G1 X60.843 Y203.067 E53.00125
G1 X59.999 Y203.056 E53.02932
G1 X59.097 Y203.003 E53.05937
G1 X58.204 Y202.871 E53.0894
G1 X57.326 Y202.66 E53.11943
G1 X56.47 Y202.372 E53.14947
G1 X55.643 Y202.01 E53.1795
G1 X54.851 Y201.575 E53.20955
G1 X54.1 Y201.073 E53.2396
G1 X53.397 Y200.506 E53.26963
G1 X52.747 Y199.879 E53.29967
G1 X52.155 Y199.197 E53.32971
G1 X51.625 Y198.466 E53.35974
G1 X51.163 Y197.69 E53.38978
G1 X50.77 Y196.877 E53.41981
G1 X50.452 Y196.032 E53.44984
G1 X50.209 Y195.162 E53.47989
G1 X50.044 Y194.274 E53.50993
G1 X49.949 Y193.149 E53.54748
G1 X49.936 Y192.543 E53.56764
G1 X49.934 Y27.821 E59.04631
G1 X49.944 Y27.008 E59.07336
G1 X49.996 Y26.106 E59.10341
G1 X50.127 Y25.213 E59.13343
G1 X50.337 Y24.334 E59.16348
G1 X50.624 Y23.478 E59.19351
G1 X50.986 Y22.65 E59.22357
G1 X51.419 Y21.858 E59.25359
G1 X51.921 Y21.107 E59.28364
G1 X52.487 Y20.403 E59.31368
G1 X53.113 Y19.753 E59.34369
G1 X53.794 Y19.16 E59.37373
G1 X54.525 Y18.629 E59.40378
G1 X55.3 Y18.166 E59.43381
G1 X56.113 Y17.773 E59.46384
G1 X56.958 Y17.453 E59.49389
G1 X57.828 Y17.209 E59.52395
G1 X58.715 Y17.043 E59.55396
G1 X59.856 Y16.947 E59.59204
G1 X60.463 Y16.934 E59.61224
G1 F1500 E53.11224
;MESH:blokboybackpanel-Body001-printable.3mf
G0 F6000 X61.36 Y26.9
G0 X110 Y191.836
;TYPE:WALL-INNER
G1 F1500 E59.61224
G1 F1200 X158.836 Y191.836 E61.23653
G1 X158.836 Y28.161 E66.68038
G1 X61.161 Y28.164 E69.92906
G1 X61.164 Y191.836 E75.37282
G1 X110 Y191.836 E76.99711
G0 F6000 X110 Y192.236
;TYPE:WALL-OUTER
G1 F1200 X159.236 Y192.236 E78.63471
G1 X159.236 Y27.761 E84.10517
G1 X60.761 Y27.764 E87.38046
G1 X60.764 Y192.236 E92.85082
G1 X110 Y192.236 E94.48842
G0 F6000 X110 Y191.476
;TYPE:SKIN
G1 F1200 X61.524 Y191.476 E96.10073
G1 X61.521 Y28.524 E101.52054
G1 X158.476 Y28.521 E104.74528
G1 X158.476 Y191.476 E110.16518
G1 X110 Y191.476 E111.7775
G1 F1500 E105.2775
G0 F6000 X110 Y191.736
G0 X61.336 Y191.664
G0 X61.263 Y190.7
G0 X61.723 Y190.7
G1 F1500 E111.7775
G1 F1200 X62.3 Y191.276 E111.80462
G0 F6000 X62.865 Y191.276
G1 F1200 X61.723 Y190.134 E111.85833
G0 F6000 X61.723 Y189.568
G1 F1200 X63.431 Y191.276 E111.93867
G0 F6000 X63.997 Y191.276
G1 F1200 X61.723 Y189.003 E112.04561
G0 F6000 X61.723 Y188.437
G1 F1200 X64.562 Y191.276 E112.17915
G0 F6000 X65.128 Y191.276
G1 F1200 X61.723 Y187.871 E112.33931
G0 F6000 X61.723 Y187.306
G1 F1200 X65.694 Y191.276 E112.52607
G0 F6000 X66.259 Y191.276
G1 F1200 X61.723 Y186.74 E112.73943
G0 F6000 X61.723 Y186.174
G1 F1200 X66.825 Y191.276 E112.97941
G0 F6000 X67.391 Y191.276
G1 F1200 X61.723 Y185.608 E113.24602
G0 F6000 X61.723 Y185.043
G1 F1200 X67.956 Y191.276 E113.5392
G0 F6000 X68.522 Y191.276
G1 F1200 X61.723 Y184.477 E113.859
G0 F6000 X61.723 Y183.911
G1 F1200 X69.088 Y191.276 E114.20543
G0 F6000 X69.654 Y191.276
G1 F1200 X61.723 Y183.346 E114.57845
G0 F6000 X61.723 Y182.78
G1 F1200 X70.219 Y191.276 E114.97808
G0 F6000 X70.785 Y191.276
G1 F1200 X61.723 Y182.214 E115.40433
G0 F6000 X61.723 Y181.649
G1 F1200 X71.351 Y191.276 E115.85718
G0 F6000 X71.916 Y191.276
G1 F1200 X61.723 Y181.083 E116.33662
G0 F6000 X61.723 Y180.517
G1 F1200 X72.482 Y191.276 E116.84269
G0 F6000 X73.048 Y191.276
G1 F1200 X61.723 Y179.952 E117.37536
G0 F6000 X61.723 Y179.386
G1 F1200 X73.613 Y191.276 E117.93463
G0 F6000 X74.179 Y191.276
G1 F1200 X61.723 Y178.82 E118.52053
G0 F6000 X61.723 Y178.255
G1 F1200 X74.745 Y191.276 E119.13302
G0 F6000 X75.31 Y191.276
G1 F1200 X61.723 Y177.689 E119.77211
G0 F6000 X61.723 Y177.123
G1 F1200 X75.876 Y191.276 E120.43782
G0 F6000 X76.442 Y191.276
G1 F1200 X61.723 Y176.557 E121.13016
G0 F6000 X61.723 Y175.992
G1 F1200 X77.007 Y191.276 E121.84907
G0 F6000 X77.573 Y191.276
G1 F1200 X61.723 Y175.426 E122.59461
G0 F6000 X61.723 Y174.86
G1 F1200 X78.139 Y191.276 E123.36676
G0 F6000 X78.705 Y191.276
G1 F1200 X61.723 Y174.295 E124.16552
G0 F6000 X61.723 Y173.729
G1 F1200 X79.27 Y191.276 E124.99088
G0 F6000 X79.836 Y191.276
G1 F1200 X61.723 Y173.163 E125.84286
G0 F6000 X61.723 Y172.598
G1 F1200 X80.402 Y191.276 E126.72144
G0 F6000 X80.967 Y191.276
G1 F1200 X61.723 Y172.032 E127.62662
G0 F6000 X61.723 Y171.466
G1 F1200 X81.533 Y191.276 E128.55842
G0 F6000 X82.099 Y191.276
G1 F1200 X61.723 Y170.901 E129.51682
G0 F6000 X61.723 Y170.335
G1 F1200 X82.664 Y191.276 E130.50182
G0 F6000 X83.23 Y191.276
G1 F1200 X61.723 Y169.769 E131.51344
G0 F6000 X61.723 Y169.204
G1 F1200 X83.796 Y191.276 E132.55167
G0 F6000 X84.361 Y191.276
G1 F1200 X61.723 Y168.638 E133.61649
G0 F6000 X61.723 Y168.072
G1 F1200 X84.927 Y191.276 E134.70793
G0 F6000 X85.493 Y191.276
G1 F1200 X61.723 Y167.507 E135.82598
G0 F6000 X61.723 Y166.941
G1 F1200 X86.058 Y191.276 E136.97062
G0 F6000 X86.624 Y191.276
G1 F1200 X61.723 Y166.375 E138.14189
G0 F6000 X61.723 Y165.809
G1 F1200 X87.19 Y191.276 E139.33978
G0 F6000 X87.755 Y191.276
G1 F1200 X61.723 Y165.244 E140.56424
G0 F6000 X61.723 Y164.678
G1 F1200 X88.321 Y191.276 E141.81533
G0 F6000 X88.887 Y191.276
G1 F1200 X61.723 Y164.112 E143.09304
G0 F6000 X61.723 Y163.547
G1 F1200 X89.453 Y191.276 E144.39735
G0 F6000 X90.018 Y191.276
G1 F1200 X61.723 Y162.981 E145.72826
G0 F6000 X61.723 Y162.415
G1 F1200 X90.584 Y191.276 E147.0858
G0 F6000 X91.15 Y191.276
G1 F1200 X61.723 Y161.85 E148.46993
G0 F6000 X61.723 Y161.284
G1 F1200 X91.715 Y191.276 E149.88066
G0 F6000 X92.281 Y191.276
G1 F1200 X61.723 Y160.718 E151.31802
G0 F6000 X61.723 Y160.153
G1 F1200 X92.847 Y191.276 E152.78197
G0 F6000 X93.412 Y191.276
G1 F1200 X61.723 Y159.587 E154.27252
G0 F6000 X61.723 Y159.021
G1 F1200 X93.978 Y191.276 E155.7897
G0 F6000 X94.544 Y191.276
G1 F1200 X61.723 Y158.455 E157.3335
G0 F6000 X61.723 Y157.889
G1 F1200 X95.109 Y191.276 E158.9039
G0 F6000 X95.675 Y191.276
G1 F1200 X61.723 Y157.323 E160.50092
G0 F6000 X61.723 Y156.758
G1 F1200 X96.241 Y191.276 E162.12454
G0 F6000 X96.806 Y191.276
G1 F1200 X61.723 Y156.192 E163.77476
G0 F6000 X61.723 Y155.626
G1 F1200 X97.372 Y191.276 E165.4516
G0 F6000 X97.938 Y191.276
G1 F1200 X61.723 Y155.061 E167.15505
G0 F6000 X61.723 Y154.495
G1 F1200 X98.504 Y191.276 E168.88511
G0 F6000 X99.069 Y191.276
G1 F1200 X61.723 Y153.929 E170.64178
G0 F6000 X61.723 Y153.364
G1 F1200 X99.635 Y191.276 E172.42504
G0 F6000 X100.201 Y191.276
G1 F1200 X61.723 Y152.798 E174.23493
G0 F6000 X61.723 Y152.232
G1 F1200 X100.766 Y191.276 E176.07141
G0 F6000 X101.332 Y191.276
G1 F1200 X61.723 Y151.667 E177.9345
G0 F6000 X61.723 Y151.101
G1 F1200 X101.898 Y191.276 E179.82421
G0 F6000 X102.463 Y191.276
G1 F1200 X61.723 Y150.535 E181.74052
G0 F6000 X61.723 Y149.97
G1 F1200 X103.029 Y191.276 E183.68342
G0 F6000 X103.595 Y191.276
G1 F1200 X61.723 Y149.404 E185.65295
G0 F6000 X61.723 Y148.838
G1 F1200 X104.16 Y191.276 E187.64908
G0 F6000 X104.726 Y191.276
G1 F1200 X61.723 Y148.273 E189.67181
G0 F6000 X61.723 Y147.707
G1 F1200 X105.292 Y191.276 E191.72117
G0 F6000 X105.857 Y191.276
G1 F1200 X61.723 Y147.141 E193.79712
G0 F6000 X61.723 Y146.575
G1 F1200 X106.423 Y191.276 E195.89969
G0 F6000 X106.989 Y191.276
G1 F1200 X61.723 Y146.01 E198.02887
G0 F6000 X61.723 Y145.444
G1 F1200 X107.554 Y191.276 E200.18464
G0 F6000 X108.12 Y191.276
G1 F1200 X61.723 Y144.878 E202.36704
G0 F6000 X61.723 Y144.313
G1 F1200 X108.686 Y191.276 E204.57603
G0 F6000 X109.252 Y191.276
G1 F1200 X61.723 Y143.747 E206.81165
G0 F6000 X61.723 Y143.181
G1 F1200 X109.817 Y191.276 E209.07387
G0 F6000 X110.383 Y191.276
G1 F1200 X61.723 Y142.616 E211.36268
G0 F6000 X61.723 Y142.05
G1 F1200 X110.949 Y191.276 E213.67812
G0 F6000 X111.514 Y191.276
G1 F1200 X61.723 Y141.484 E216.02016
G0 F6000 X61.723 Y140.919
G1 F1200 X112.08 Y191.276 E218.3888
G0 F6000 X112.646 Y191.276
G1 F1200 X61.723 Y140.353 E220.78406
G0 F6000 X61.723 Y139.787
G1 F1200 X113.211 Y191.276 E223.20593
G0 F6000 X113.777 Y191.276
G1 F1200 X61.723 Y139.222 E225.65439
G0 F6000 X61.723 Y138.656
G1 F1200 X114.343 Y191.276 E228.12947
G0 F6000 X114.908 Y191.276
G1 F1200 X61.723 Y138.09 E230.63115
G0 F6000 X61.723 Y137.524
G1 F1200 X115.474 Y191.276 E233.15946
G0 F6000 X116.04 Y191.276
G1 F1200 X61.723 Y136.959 E235.71436
G0 F6000 X61.723 Y136.393
G1 F1200 X116.605 Y191.276 E238.29587
G0 F6000 X117.171 Y191.276
G1 F1200 X61.723 Y135.827 E240.904
G0 F6000 X61.723 Y135.262
G1 F1200 X117.737 Y191.276 E243.53872
G0 F6000 X118.303 Y191.276
G1 F1200 X61.723 Y134.696 E246.20007
G0 F6000 X61.723 Y134.13
G1 F1200 X118.868 Y191.276 E248.88802
G0 F6000 X119.434 Y191.276
G1 F1200 X61.723 Y133.565 E251.60257
G0 F6000 X61.723 Y132.999
G1 F1200 X120 Y191.276 E254.34374
G0 F6000 X120.565 Y191.276
G1 F1200 X61.723 Y132.433 E257.11151
G0 F6000 X61.723 Y131.868
G1 F1200 X121.131 Y191.276 E259.90588
G0 F6000 X121.697 Y191.276
G1 F1200 X61.723 Y131.302 E262.72688
G0 F6000 X61.723 Y130.736
G1 F1200 X122.262 Y191.276 E265.57447
G0 F6000 X122.828 Y191.276
G1 F1200 X61.723 Y130.171 E268.44866
G0 F6000 X61.723 Y129.605
G1 F1200 X123.394 Y191.276 E271.34947
G0 F6000 X123.959 Y191.276
G1 F1200 X61.723 Y129.039 E274.27689
G0 F6000 X61.723 Y128.474
